images/affalddk/genbrug.svg

<?xml version="1.0" encoding="UTF-8"?>
<!-- Generated by Pixelmator Pro 3.5.7 -->
<svg width="510" height="510" viewBox="0 0 510 510" xmlns="http://www.w3.org/2000/svg">
    <g id="baggrund">
        <g id="Group">
            <path id="Path" fill="#87c84b" stroke="none" d="M 509.279785 509.241333 L 0.002209 509.241333 L 0.002209 -0.036255 L 509.279785 -0.036255 L 509.279785 509.241333 Z"/>
        </g>
    </g>
    <g id="fraktion">
        <g id="g1">
            <path id="path1" fill="#ffffff" stroke="none" visibility="hidden" d="M 138.724762 433.16452 L 156.354996 433.16452 L 156.354996 434.573792 C 156.354996 437.779266 155.977097 440.616516 155.222015 443.084839 C 154.484909 445.369446 153.241455 447.506256 151.491425 449.49588 C 147.530411 453.954407 142.491959 456.183228 136.375885 456.183228 C 130.407135 456.183228 125.294846 454.02774 121.03936 449.716949 C 116.783775 445.388 114.655975 440.192902 114.655975 434.131592 C 114.655975 427.94165 116.820404 422.691345 121.149849 418.380463 C 125.478806 414.051605 130.747681 411.886688 136.956207 411.886688 C 140.290436 411.886688 143.403854 412.565399 146.29631 413.92215 C 149.059723 415.279572 151.77681 417.484131 154.448273 420.535889 L 149.861115 424.929718 C 146.360703 420.269104 142.096024 417.938385 137.066788 417.938385 C 132.552994 417.938385 128.767212 419.495361 125.709373 422.60849 C 122.651131 425.66684 121.1222 429.498657 121.1222 434.104065 C 121.1222 438.857025 122.826004 442.771851 126.234383 445.848267 C 129.421295 448.704102 132.875488 450.1315 136.59697 450.1315 C 139.765411 450.1315 142.611649 449.065796 145.135803 446.934326 C 147.659454 444.784485 149.068787 442.211792 149.363647 439.216248 L 138.724762 439.216248 L 138.724762 433.16452 Z"/>
            <path id="path2" fill="#ffffff" stroke="none" visibility="hidden" d="M 187.995331 418.767334 L 170.890228 418.767334 L 170.890228 429.019531 L 187.497971 429.019531 L 187.497971 435.071167 L 170.890228 435.071167 L 170.890228 449.330109 L 187.995331 449.330109 L 187.995331 455.381927 L 164.451538 455.381927 L 164.451538 412.715698 L 187.995331 412.715698 L 187.995331 418.767334 Z"/>
            <path id="path3" fill="#ffffff" stroke="none" visibility="hidden" d="M 196.451218 455.381927 L 196.451218 409.814087 L 227.566544 442.366425 L 227.566544 412.715698 L 234.005219 412.715698 L 234.005219 457.979431 L 202.889786 425.509949 L 202.889786 455.381927 L 196.451218 455.381927 Z"/>
            <path id="path4" fill="#ffffff" stroke="none" visibility="hidden" d="M 244.229568 455.381927 L 244.229568 412.715698 L 250.640594 412.715698 C 253.495834 412.715698 255.770966 412.936798 257.465973 413.378998 C 259.179413 413.821045 260.625305 414.567017 261.804474 415.617188 C 263.001831 416.704437 263.95047 418.05838 264.650726 419.679413 C 265.369385 421.319122 265.728516 422.977112 265.728516 424.653442 C 265.728516 427.71167 264.55838 430.30011 262.218903 432.418335 C 264.485046 433.192078 266.271667 434.546234 267.580048 436.480591 C 268.906433 438.396667 269.569641 440.62558 269.569641 443.167908 C 269.569641 446.502502 268.390289 449.321136 266.032532 451.623688 C 264.613678 453.042419 263.020386 454.02774 261.251831 454.580414 C 259.317474 455.11499 256.894714 455.381927 253.984192 455.381927 L 244.229568 455.381927 Z M 250.668259 431.036621 L 252.685455 431.036621 C 255.080154 431.036621 256.834747 430.507324 257.949524 429.447815 C 259.063934 428.388611 259.621582 426.827454 259.621582 424.763916 C 259.621582 422.756104 259.050293 421.231628 257.908112 420.190674 C 256.765808 419.150024 255.107697 418.629303 252.934189 418.629303 L 250.668259 418.629303 L 250.668259 431.036621 Z M 250.668259 449.330109 L 254.647583 449.330109 C 257.557861 449.330109 259.694824 448.759277 261.058502 447.616821 C 262.495483 446.382843 263.213745 444.816803 263.213745 442.919067 C 263.213745 441.07724 262.523041 439.529755 261.141327 438.276611 C 259.796265 437.042725 257.392303 436.425293 253.928925 436.425293 L 250.668259 436.425293 L 250.668259 449.330109 Z"/>
            <path id="path5" fill="#ffffff" stroke="none" visibility="hidden" d="M 292.146179 437.199036 L 305.355011 455.381927 L 297.47934 455.381927 L 285.292969 437.91748 L 284.132477 437.91748 L 284.132477 455.381927 L 277.693665 455.381927 L 277.693665 412.715698 L 285.237793 412.715698 C 290.874969 412.715698 294.946228 413.775208 297.451782 415.893433 C 300.215088 418.251892 301.596771 421.364929 301.596771 425.233643 C 301.596771 428.25528 300.730835 430.852783 298.999268 433.026306 C 297.267334 435.200317 294.983032 436.591095 292.146179 437.199036 Z M 284.132477 432.307831 L 286.177307 432.307831 C 292.27475 432.307831 295.324097 429.977631 295.324097 425.316589 C 295.324097 420.950531 292.357788 418.767334 286.425934 418.767334 L 284.132477 418.767334 L 284.132477 432.307831 Z"/>
            <path id="path6" fill="#ffffff" stroke="none" visibility="hidden" d="M 317.569031 412.715698 L 317.569031 438.395752 C 317.569031 442.05957 318.16748 444.737854 319.365021 446.431274 C 321.151886 448.879639 323.666443 450.103821 326.909149 450.103821 C 330.169922 450.103821 332.693573 448.879639 334.480682 446.431274 C 335.67804 444.79303 336.276794 442.114288 336.276794 438.395752 L 336.276794 412.715698 L 342.715485 412.715698 L 342.715485 440.183411 C 342.715485 444.67865 341.315216 448.381592 338.515198 451.292114 C 335.365021 454.534607 331.496307 456.15564 326.909149 456.15564 C 322.321991 456.15564 318.46225 454.534607 315.330719 451.292114 C 312.530212 448.381592 311.130432 444.67865 311.130432 440.183411 L 311.130432 412.715698 L 317.569031 412.715698 Z"/>
            <path id="path7" fill="#ffffff" stroke="none" visibility="hidden" d="M 374.880951 433.16452 L 392.511139 433.16452 L 392.511139 434.573792 C 392.511139 437.779266 392.133362 440.616516 391.378204 443.084839 C 390.640991 445.369446 389.397614 447.506256 387.647583 449.49588 C 383.686462 453.954407 378.648224 456.183228 372.531952 456.183228 C 366.563202 456.183228 361.451019 454.02774 357.195435 449.716949 C 352.939972 445.388 350.812225 440.192902 350.812225 434.131592 C 350.812225 427.94165 352.976563 422.691345 357.30603 418.380463 C 361.635071 414.051605 366.90387 411.886688 373.112366 411.886688 C 376.446716 411.886688 379.560028 412.565399 382.452484 413.92215 C 385.215881 415.279572 387.933075 417.484131 390.604553 420.535889 L 386.017181 424.929718 C 382.516876 420.269104 378.252197 417.938385 373.222961 417.938385 C 368.709259 417.938385 364.92337 419.495361 361.865662 422.60849 C 358.80722 425.66684 357.27829 429.498657 357.27829 434.104065 C 357.27829 438.857025 358.982269 442.771851 362.390533 445.848267 C 365.577454 448.704102 369.031769 450.1315 372.753052 450.1315 C 375.921478 450.1315 378.767822 449.065796 381.29187 446.934326 C 383.815613 444.784485 385.224762 442.211792 385.519928 439.216248 L 374.880951 439.216248 L 374.880951 433.16452 Z"/>
        </g>
    </g>
    <g id="ikon">
        <g id="g2">
            <path id="path8" fill="#ffffff" stroke="none" d="M 217.739197 174.294159 C 229.108109 167.82016 242.015808 164.37381 255.453217 164.37381 C 275.858215 164.37381 295.041687 172.319977 309.470032 186.748413 C 314.095306 191.373627 318.05307 196.48819 321.297882 201.974243 L 295.953857 217.024933 L 362.426056 240.946899 L 370.854706 172.54483 L 347.563904 186.376099 C 343.008301 178.665649 337.493073 171.557709 331.076996 165.141602 C 321.26004 155.324677 309.824097 147.615265 297.087036 142.228027 C 283.89209 136.647034 269.88446 133.817169 255.453217 133.817169 C 241.022079 133.817169 227.014343 136.647034 213.819382 142.228027 C 213.285599 142.453796 212.754593 142.684784 212.225479 142.918701 L 217.739197 174.294159 Z"/>
            <path id="path9" fill="#ffffff" stroke="none" d="M 217.410706 307.046082 C 211.640884 303.722443 206.271088 299.617371 201.436295 294.782593 C 187.007751 280.354004 179.061508 261.17041 179.061508 240.765442 C 179.061508 227.177002 182.586578 214.13089 189.202133 202.669373 L 214.936676 217.195496 L 202.720871 147.68277 L 139.17569 174.43161 L 162.599487 187.65329 C 160.485474 191.347656 158.588547 195.176849 156.915802 199.131714 C 151.334702 212.326691 148.50502 226.33432 148.50502 240.765442 C 148.50502 255.196671 151.334702 269.204285 156.915802 282.399261 C 162.303146 295.136414 170.012329 306.572357 179.829254 316.389282 C 183.869476 320.429382 188.185638 324.10968 192.752136 327.42041 L 217.410706 307.046082 Z"/>
            <path id="path10" fill="#ffffff" stroke="none" d="M 331.844727 240.776123 C 331.841919 261.177124 323.896088 280.356628 309.470032 294.782593 C 295.217651 309.035034 276.325226 316.961426 256.199097 317.152649 L 256.204102 288.272217 L 201.695496 333.243469 L 256.189026 375.435669 L 256.193817 347.709229 C 270.363556 347.614136 284.11795 344.788422 297.087036 339.302979 C 309.824097 333.91571 321.26004 326.206299 331.076996 316.389282 C 340.893982 306.572357 348.60321 295.136414 353.99054 282.399261 C 358.167755 272.523376 360.802429 262.191895 361.863892 251.568604 L 331.844727 240.776123 Z"/>
        </g>
    </g>
</svg>

<svg xmlns="http://www.w3.org/2000/svg" width="510" height="510" xmlns:v="https://vecta.io/nano"><path fill="#87c84b" d="M509.28 509.241H.002V-.036H509.28v509.278z"/><path d="M217.739 174.294c11.369-6.474 24.277-9.92 37.714-9.92 20.405 0 39.588 7.946 54.017 22.375 4.625 4.625 8.583 9.74 11.828 15.226l-25.344 15.051 66.472 23.922 8.429-68.402-23.291 13.831c-4.556-7.71-10.071-14.818-16.487-21.234a106.57 106.57 0 0 0-33.99-22.914c-13.195-5.581-27.203-8.411-41.634-8.411s-28.439 2.83-41.634 8.411l-1.594.691 5.514 31.375zm-.328 132.752a76.8 76.8 0 0 1-15.974-12.263c-14.429-14.429-22.375-33.612-22.375-54.017 0-13.588 3.525-26.635 10.141-38.096l25.735 14.526-12.216-69.513-63.545 26.749 23.424 13.222c-2.114 3.694-4.011 7.524-5.684 11.478-5.581 13.195-8.411 27.203-8.411 41.634s2.83 28.439 8.411 41.634a106.57 106.57 0 0 0 22.913 33.99 107.49 107.49 0 0 0 12.923 11.031l24.659-20.374zm114.434-66.27c-.003 20.401-7.949 39.581-22.375 54.006-14.252 14.252-33.145 22.179-53.271 22.37l.005-28.88-54.509 44.971 54.494 42.192.005-27.726c14.17-.095 27.924-2.921 40.893-8.406a106.57 106.57 0 0 0 56.904-56.904c4.177-9.876 6.812-20.207 7.873-30.831l-30.019-10.792z" fill="#fff"/></svg>
